X:1
T:Title
%%score 1 2
L:1/8
Q:1/4=120
M:4/4
K:D
V:1 treble nm="Grand Piano, Soprano"
V:2 bass nm="Choir Pad, Lleida, Frederick A. Graves"
V:1
 [DF]4 [DF]2 [DF]2 | [DG]2 [DG]2 [DF]4 | D4 [CE]4- | [CE]2 z2 [CE]4 | [CE]2 [DF]2 [EG]2 [GB]2 | %5
w: By~Frederick~Arthur~Graves,~1895 * *|||||
 [FA]2 [EG]2 [DF]4 | [FA]4 [DF]2 [EG]2 | [FA]2 [FA]2 [Fd]2 [Ec]2 | [GB]6 z2 | [GB]4 [FA]2 [DF]2 | %10
w: |||||
 [CE]2 [DF]2 [EG]4 | [A,C]4 [A,D]4- | [A,D]4 z4 |] %13
w: |||
V:2
 [D,A,]4 [D,A,]2 [D,A,]2 | [D,B,]2 [D,^A,]2 [D,=A,]4 | [D,F,]4 [A,,A,]4- | [A,,A,]2 z2 [A,,A,]4 | %4
 [A,,A,]2 [A,,A,]2 [A,,A,]2 [A,,A,]2 | [B,,B,]2 [C,A,]2 [D,A,]4 | [D,D]4 [D,A,]2 [D,A,]2 | %7
 [D,D]2 [D,D]2 [D,A,]2 [F,^A,]2 | [G,D]6 z2 | [G,D]4 [F,D]2 [D,A,]2 | [A,,A,]2 [A,,A,]2 [A,,A,]4 | %11
 [A,,G,]4 [D,F,]4- | [D,F,]4 z4 |] %13

